packages/ffe-icons/icons/filled/sm/account_box.svg

<svg xmlns="http://www.w3.org/2000/svg" height="20" viewBox="0 -960 960 960" width="20"><path d="M480.242-406.461q55.912 0 94.834-39.166 38.923-39.165 38.923-95.076 0-55.911-39.165-94.834t-95.076-38.923q-55.912 0-94.834 39.165-38.923 39.166-38.923 95.077t39.165 94.834q39.165 38.923 95.076 38.923Zm-251.933 242.46q-27.008 0-45.658-18.65-18.65-18.65-18.65-45.658v-503.382q0-27.008 18.65-45.658 18.65-18.65 45.658-18.65h503.382q27.008 0 45.658 18.65 18.65 18.65 18.65 45.658v503.382q0 27.008-18.65 45.658-18.65 18.65-45.658 18.65H228.309ZM224.462-216h511.076q4.231-15.154 5.769-22.077 1.539-6.922 2.693-23.23-57-45-124.5-68t-139.5-23q-72 0-139.5 23t-124.5 68q1.154 16.308 2.693 23.23 1.538 6.923 5.769 22.077Z"/></svg>

<svg xmlns="http://www.w3.org/2000/svg" height="20" viewBox="0 -960 960 960" width="20"><path d="M480.24-406.46q55.91 0 94.84-39.17Q614-484.79 614-540.7t-39.17-94.84q-39.16-38.92-95.07-38.92t-94.84 39.17Q346-596.13 346-540.22t39.17 94.84q39.16 38.92 95.07 38.92ZM228.31-164q-27.01 0-45.66-18.65Q164-201.3 164-228.31v-503.38q0-27.01 18.65-45.66Q201.3-796 228.31-796h503.38q27.01 0 45.66 18.65Q796-758.7 796-731.69v503.38q0 27.01-18.65 45.66Q758.7-164 731.69-164H228.31Zm-3.85-52h511.08q4.23-15.15 5.77-22.08 1.54-6.92 2.69-23.23-57-45-124.5-68t-139.5-23q-72 0-139.5 23t-124.5 68q1.15 16.31 2.69 23.23 1.54 6.93 5.77 22.08Z"/></svg>
